static/assets/images/tokens/susd.svg

<svg width="256" height="256" viewBox="0 0 256 256" fill="none" xmlns="http://www.w3.org/2000/svg">
<path d="M128 256C198.692 256 256 198.692 256 128C256 57.3075 198.692 0 128 0C57.3075 0 0 57.3075 0 128C0 198.692 57.3075 256 128 256Z" fill="black"/>
<path fill-rule="evenodd" clip-rule="evenodd" d="M128 231.424C185.12 231.424 231.424 185.12 231.424 128C231.424 70.8805 185.12 24.576 128 24.576C70.8805 24.576 24.576 70.8805 24.576 128C24.576 185.12 70.8805 231.424 128 231.424ZM127.999 209.562C173.221 209.562 209.881 172.914 209.881 127.706C209.881 82.4972 173.221 45.8486 127.999 45.8486C82.7773 45.8486 46.1176 82.4972 46.1176 127.706C46.1176 172.914 82.7773 209.562 127.999 209.562Z" fill="#00D1FF"/>
<path d="M123.276 174.8C118.932 174.452 114.849 173.497 111.026 171.934C107.203 170.284 103.903 168.156 101.122 165.55C98.3421 162.945 96.1267 159.948 94.4763 156.561C92.8259 153.174 91.9567 149.483 91.87 145.488H107.899C108.073 149.743 109.549 153.304 112.329 156.17C115.196 158.95 118.845 160.556 123.276 160.99V135.196L117.151 134.284C110.114 133.329 104.511 130.68 100.34 126.337C96.257 121.995 94.2157 116.48 94.2157 109.792C94.2157 106.319 94.9976 103.062 96.5613 100.022C98.1251 96.8952 100.254 94.1595 102.947 91.8145C105.64 89.383 108.724 87.4289 112.199 85.9522C115.761 84.4755 119.453 83.5635 123.276 83.2164V71.1008H132.789V83.4769C136.698 83.998 140.303 85.0402 143.605 86.6035C146.906 88.0802 149.773 89.9907 152.206 92.3356C154.638 94.6806 156.55 97.3727 157.939 100.413C159.417 103.453 160.241 106.71 160.415 110.183H144.387C144.213 107.057 143.04 104.365 140.868 102.106C138.783 99.7613 136.09 98.1543 132.789 97.2861V121.126L137.219 121.778C140.521 122.299 143.648 123.211 146.602 124.514C149.556 125.816 152.119 127.51 154.291 129.594C156.55 131.679 158.287 134.198 159.503 137.15C160.806 140.016 161.458 143.273 161.458 146.921C161.458 150.829 160.72 154.39 159.243 157.603C157.853 160.73 155.854 163.509 153.248 165.941C150.728 168.286 147.688 170.24 144.126 171.803C140.651 173.28 136.872 174.235 132.789 174.669V188.088H123.276V174.8ZM132.789 160.86C136.872 160.165 140.043 158.689 142.302 156.431C144.561 154.086 145.69 151.133 145.69 147.572C145.69 144.272 144.604 141.84 142.432 140.277C140.26 138.627 137.784 137.541 135.004 137.02L132.789 136.629V160.86ZM123.276 96.8952C119.627 97.4164 116.499 98.7628 113.893 100.934C111.373 103.018 110.114 105.841 110.114 109.402C110.114 112.442 110.94 114.743 112.59 116.306C114.328 117.783 116.586 118.738 119.366 119.172L123.276 119.824V96.8952Z" fill="#00D1FF"/>
</svg>

<svg xmlns="http://www.w3.org/2000/svg" fill="none" viewBox="0 0 256 256"><path fill="#000" d="M128 256c70.692 0 128-57.308 128-128S198.692 0 128 0 0 57.308 0 128s57.308 128 128 128"/><path fill="#00D1FF" fill-rule="evenodd" d="M128 231.424c57.12 0 103.424-46.304 103.424-103.424S185.12 24.576 128 24.576 24.576 70.881 24.576 128 70.881 231.424 128 231.424m-.001-21.862c45.222 0 81.882-36.648 81.882-81.856 0-45.209-36.66-81.857-81.882-81.857s-81.881 36.648-81.881 81.857 36.66 81.856 81.881 81.856" clip-rule="evenodd"/><path fill="#00D1FF" d="M123.276 174.8q-6.516-.522-12.25-2.866-5.734-2.475-9.904-6.384a30.6 30.6 0 0 1-6.646-8.989q-2.476-5.08-2.606-11.073h16.029q.26 6.383 4.43 10.682 4.3 4.17 10.947 4.82v-25.794l-6.125-.912q-10.555-1.433-16.811-7.947-6.124-6.513-6.124-16.545 0-5.21 2.345-9.77 2.346-4.69 6.386-8.208 4.04-3.647 9.252-5.862a37.7 37.7 0 0 1 11.077-2.736V71.101h9.513v12.376q5.863.781 10.816 3.126 4.951 2.216 8.601 5.733a26.3 26.3 0 0 1 5.733 8.077q2.216 4.56 2.476 9.77h-16.028q-.261-4.689-3.519-8.077-3.127-3.518-8.079-4.82v23.84l4.43.652a37.7 37.7 0 0 1 9.383 2.736q4.431 1.953 7.689 5.08 3.388 3.128 5.212 7.556 1.955 4.299 1.955 9.771 0 5.862-2.215 10.682-2.085 4.69-5.995 8.338-3.78 3.518-9.122 5.862-5.213 2.215-11.337 2.866v13.419h-9.513zm9.513-13.94q6.124-1.042 9.513-4.429 3.388-3.518 3.388-8.859 0-4.95-3.258-7.295-3.258-2.475-7.428-3.257l-2.215-.391zm-9.513-63.965q-5.474.782-9.383 4.039-3.78 3.126-3.779 8.468 0 4.56 2.476 6.904 2.607 2.215 6.776 2.866l3.91.652z"/></svg>
